X:18607
T:West Wind, The
R:reel
Z:id:hn-reel-430
M:C|
K:G
BdGA BGdB|ADFG ABcA|(3Bcd GA BGdB|cAFG AG~G2|
BdGA BGdB|AD~D2 ABcA|GABd ~g3e|fdcA BGFA:|
|:G2Bd ~g3e|~f3d ABcA|G2Bd ~g3e|fdcA BGFA|
G2Bd ~g3e|~f3d ABcA|dg~g2 bgag|1 fdcA BGGF:|2 fdcA BGGA||
|:B2GB ~B2GB|A2FA ~A2FA|B2GB ~B2GB|cADF AGGA|
B2GB GBdB|A2FA dAFA|G2 (3Bcd ~g3e|fdcA BGGA:|


